svgs/thin/kip-sign.svg

<svg xmlns="http://www.w3.org/2000/svg" viewBox="0 0 384 512"><!--! Font Awesome Pro 6.1.1 by @fontawesome - https://fontawesome.com License - https://fontawesome.com/license (Commercial License) Copyright 2022 Fonticons, Inc. --><path d="M88 32C92.42 32 96 35.58 96 40V238.8L338.8 33.89C342.2 31.04 347.3 31.46 350.1 34.84C352.1 38.22 352.5 43.27 349.2 46.11L109.9 248H376C380.4 248 384 251.6 384 256C384 260.4 380.4 264 376 264H109.9L349.2 465.9C352.5 468.7 352.1 473.8 350.1 477.2C347.3 480.5 342.2 480.1 338.8 478.1L96 273.2V473C96 477.4 92.42 481 88 481C83.58 481 80 477.4 80 473V264H8C3.582 264 0 260.4 0 256C0 251.6 3.582 248 8 248H80V40C80 35.58 83.58 32 88 32V32z"/></svg>

<svg xmlns="http://www.w3.org/2000/svg" viewBox="0 0 384 512"><!--! Font Awesome Pro 6.4.2 by @fontawesome - https://fontawesome.com License - https://fontawesome.com/license (Commercial License) Copyright 2023 Fonticons, Inc. --><path d="M88 32c4.4 0 8 3.6 8 8V238.8L338.8 33.9c3.4-2.8 8.4-2.4 11.3 1s2.4 8.4-1 11.3L109.9 248H376c4.4 0 8 3.6 8 8s-3.6 8-8 8H109.9L349.2 465.9c3.4 2.9 3.8 7.9 1 11.3s-7.9 3.8-11.3 1L96 273.2V473c0 4.4-3.6 8-8 8s-8-3.6-8-8V264H8c-4.4 0-8-3.6-8-8s3.6-8 8-8H80V40c0-4.4 3.6-8 8-8z"/></svg>
